packages/sources/assets/src/assets/flag-tr.svg

<svg width="28" height="20" viewBox="0 0 28 20" fill="none" xmlns="http://www.w3.org/2000/svg">
<rect width="28" height="20" rx="2" fill="white"/>
<mask id="mask0_503_4206" style="mask-type:alpha" maskUnits="userSpaceOnUse" x="0" y="0" width="28" height="20">
<rect width="28" height="20" rx="2" fill="white"/>
</mask>
<g mask="url(#mask0_503_4206)">
<rect width="28" height="20" fill="#E92434"/>
<path fill-rule="evenodd" clip-rule="evenodd" d="M19.0208 10.7684L17.796 12.2533L17.8795 10.3302L16.0887 9.62423L17.9434 9.1093L18.0615 7.18799L19.1244 8.79287L20.9881 8.31142L19.7902 9.81822L20.8241 11.442L19.0208 10.7684Z" fill="white"/>
<path fill-rule="evenodd" clip-rule="evenodd" d="M17.4028 13.6838C16.3049 15.0934 14.5916 16 12.6665 16C9.3528 16 6.6665 13.3137 6.6665 10C6.6665 6.68629 9.3528 4 12.6665 4C14.5916 4 16.3049 4.90659 17.4028 6.31611C16.5555 5.70019 15.4902 5.33331 14.333 5.33331C11.5716 5.33331 9.33301 7.42265 9.33301 9.99998C9.33301 12.5773 11.5716 14.6666 14.333 14.6666C15.4902 14.6666 16.5556 14.2997 17.4028 13.6838Z" fill="white"/>
</g>
</svg>

<svg width="28" height="20" fill="none" xmlns="http://www.w3.org/2000/svg"><rect width="28" height="20" rx="2" fill="#fff"/><mask id="a" style="mask-type:alpha" maskUnits="userSpaceOnUse" x="0" y="0" width="28" height="20"><rect width="28" height="20" rx="2" fill="#fff"/></mask><g mask="url(#a)"><path fill="#E92434" d="M0 0h28v20H0z"/><path fill-rule="evenodd" clip-rule="evenodd" d="m19.02 10.768-1.224 1.485.084-1.923-1.791-.706 1.854-.515.118-1.921 1.063 1.605 1.864-.482-1.198 1.507 1.034 1.624-1.803-.674Z" fill="#fff"/><path fill-rule="evenodd" clip-rule="evenodd" d="M17.403 13.684a6 6 0 1 1 0-7.368 5.21 5.21 0 0 0-3.07-.983c-2.761 0-5 2.09-5 4.667s2.239 4.667 5 4.667a5.21 5.21 0 0 0 3.07-.983Z" fill="#fff"/></g></svg>
